flaticon/gastronomy/doughnut-1.svg

<svg xmlns="http://www.w3.org/2000/svg" width="32" height="32" viewBox="0 0 24 24">
    <path d="M6.894531 10.761719L5.140625 11.234375C4.925781 11.292969 4.796875 11.515625 4.855469 11.734375 4.90625 11.914062 5.066406 12.035156 5.246094 12.035156 5.28125 12.035156 5.316406 12.03125 5.355469 12.019531L7.105469 11.546875C7.324219 11.488281 7.453125 11.265625 7.394531 11.046875 7.335938 10.832031 7.109375 10.699219 6.894531 10.761719zM11.804688 14.285156L10.585938 13.878906C10.371094 13.804688 10.144531 13.921875 10.070312 14.132812 10 14.347656 10.117188 14.578125 10.328125 14.648438L11.546875 15.054688C11.589844 15.070312 11.632812 15.074219 11.675781 15.074219 11.84375 15.074219 12.003906 14.96875 12.0625 14.796875 12.132812 14.585938 12.015625 14.355469 11.804688 14.285156zM19.527344 9.726562C19.304688 9.726562 19.121094 9.90625 19.121094 10.132812L19.121094 11.757812C19.121094 11.980469 19.304688 12.164062 19.527344 12.164062 19.753906 12.164062 19.933594 11.980469 19.933594 11.757812L19.933594 10.132812C19.933594 9.90625 19.753906 9.726562 19.527344 9.726562zM9.644531 5.371094C9.722656 5.460938 9.835938 5.503906 9.945312 5.503906 10.042969 5.503906 10.140625 5.46875 10.214844 5.402344 10.382812 5.25 10.398438 4.992188 10.246094 4.828125L9.386719 3.871094C9.238281 3.703125 8.980469 3.691406 8.816406 3.839844 8.648438 3.992188 8.632812 4.246094 8.785156 4.414062zM19.089844 7.511719L20.308594 7.917969C20.351562 7.929688 20.394531 7.9375 20.4375 7.9375 20.605469 7.9375 20.765625 7.832031 20.820312 7.660156 20.890625 7.449219 20.777344 7.21875 20.566406 7.144531L19.347656 6.738281C19.132812 6.667969 18.902344 6.785156 18.832031 6.996094 18.761719 7.210938 18.875 7.441406 19.089844 7.511719zM14.832031 12.546875C14.601562 12.53125 14.414062 12.707031 14.402344 12.929688L14.367188 13.503906C14.355469 13.726562 14.523438 13.917969 14.75 13.933594 14.757812 13.933594 14.765625 13.933594 14.773438 13.933594 14.988281 13.933594 15.164062 13.765625 15.179688 13.550781L15.210938 12.976562C15.226562 12.753906 15.054688 12.5625 14.832031 12.546875zM17.683594 14.753906C17.765625 14.832031 17.867188 14.871094 17.972656 14.871094 18.074219 14.871094 18.179688 14.832031 18.257812 14.753906 18.417969 14.59375 18.417969 14.339844 18.257812 14.179688L17.851562 13.773438C17.695312 13.613281 17.4375 13.613281 17.277344 13.773438 17.121094 13.933594 17.121094 14.1875 17.277344 14.347656zM6.410156 13.976562C6.253906 13.816406 5.996094 13.816406 5.835938 13.976562 5.679688 14.132812 5.679688 14.390625 5.835938 14.550781L6.242188 14.957031C6.324219 15.035156 6.425781 15.074219 6.53125 15.074219 6.632812 15.074219 6.738281 15.035156 6.816406 14.957031 6.976562 14.796875 6.976562 14.539062 6.816406 14.382812zM17.984375 5.921875C17.988281 5.921875 17.996094 5.921875 18.003906 5.921875 18.226562 5.914062 18.398438 5.722656 18.390625 5.5L18.363281 4.925781C18.355469 4.699219 18.160156 4.527344 17.941406 4.539062 17.71875 4.546875 17.542969 4.738281 17.554688 4.960938L17.578125 5.535156C17.589844 5.753906 17.769531 5.921875 17.984375 5.921875zM5.4375 8.042969C5.472656 8.042969 5.503906 8.039062 5.539062 8.03125 5.757812 7.976562 5.886719 7.753906 5.832031 7.535156L5.425781 5.914062C5.375 5.695312 5.152344 5.5625 4.933594 5.617188 4.71875 5.671875 4.585938 5.890625 4.640625 6.109375L5.046875 7.734375C5.089844 7.917969 5.257812 8.042969 5.4375 8.042969zM3.363281 9.195312C3.207031 9.035156 2.949219 9.035156 2.789062 9.195312 2.632812 9.351562 2.632812 9.609375 2.789062 9.769531L3.195312 10.175781C3.277344 10.253906 3.378906 10.292969 3.484375 10.292969 3.589844 10.292969 3.691406 10.253906 3.769531 10.175781 3.929688 10.015625 3.929688 9.757812 3.769531 9.601562zM14.910156 5.71875C14.988281 5.800781 15.09375 5.839844 15.195312 5.839844 15.300781 5.839844 15.402344 5.800781 15.484375 5.71875 15.640625 5.5625 15.640625 5.304688 15.484375 5.144531L15.078125 4.738281C14.917969 4.582031 14.660156 4.582031 14.503906 4.738281 14.34375 4.898438 14.34375 5.15625 14.503906 5.3125zM14.910156 5.71875"/>
    <path d="M 23.996094 11.140625 L 23.996094 10.171875 C 23.996094 10.117188 23.984375 10.070312 23.964844 10.023438 C 23.964844 9.972656 23.957031 9.925781 23.957031 9.875 C 23.953125 9.804688 23.949219 9.734375 23.941406 9.664062 C 23.9375 9.589844 23.929688 9.515625 23.917969 9.445312 C 23.910156 9.375 23.902344 9.300781 23.890625 9.234375 C 23.878906 9.160156 23.867188 9.089844 23.851562 9.019531 C 23.839844 8.949219 23.828125 8.878906 23.8125 8.808594 C 23.792969 8.738281 23.777344 8.671875 23.757812 8.601562 C 23.742188 8.53125 23.722656 8.460938 23.703125 8.390625 C 23.679688 8.324219 23.660156 8.257812 23.636719 8.191406 C 23.613281 8.121094 23.589844 8.050781 23.5625 7.980469 C 23.539062 7.917969 23.511719 7.851562 23.484375 7.785156 C 23.457031 7.71875 23.429688 7.648438 23.398438 7.582031 C 23.371094 7.515625 23.339844 7.453125 23.308594 7.390625 C 23.273438 7.320312 23.242188 7.253906 23.207031 7.1875 C 23.175781 7.125 23.140625 7.0625 23.105469 7.003906 C 23.066406 6.9375 23.03125 6.871094 22.988281 6.804688 C 22.953125 6.742188 22.914062 6.683594 22.875 6.625 C 22.832031 6.558594 22.792969 6.492188 22.746094 6.429688 C 22.707031 6.371094 22.664062 6.3125 22.621094 6.253906 C 22.574219 6.191406 22.53125 6.128906 22.480469 6.0625 C 22.4375 6.007812 22.390625 5.953125 22.34375 5.894531 C 22.292969 5.832031 22.242188 5.769531 22.191406 5.710938 C 22.144531 5.65625 22.09375 5.601562 22.046875 5.550781 C 21.988281 5.488281 21.933594 5.425781 21.875 5.367188 C 21.828125 5.3125 21.773438 5.261719 21.722656 5.210938 C 21.664062 5.152344 21.605469 5.09375 21.542969 5.035156 C 21.488281 4.984375 21.433594 4.9375 21.375 4.886719 C 21.3125 4.828125 21.25 4.773438 21.1875 4.71875 C 21.128906 4.667969 21.070312 4.621094 21.011719 4.574219 C 20.945312 4.519531 20.878906 4.464844 20.808594 4.410156 C 20.75 4.363281 20.6875 4.316406 20.625 4.273438 C 20.554688 4.21875 20.484375 4.167969 20.414062 4.117188 C 20.347656 4.070312 20.285156 4.027344 20.21875 3.984375 C 20.144531 3.933594 20.070312 3.886719 19.996094 3.835938 C 19.929688 3.792969 19.863281 3.753906 19.792969 3.710938 C 19.71875 3.664062 19.640625 3.617188 19.5625 3.570312 C 19.492188 3.53125 19.421875 3.492188 19.351562 3.453125 C 19.273438 3.410156 19.191406 3.363281 19.113281 3.320312 C 19.039062 3.28125 18.964844 3.246094 18.886719 3.207031 C 18.808594 3.167969 18.726562 3.125 18.644531 3.085938 C 18.566406 3.046875 18.488281 3.015625 18.410156 2.980469 C 18.328125 2.941406 18.246094 2.902344 18.160156 2.867188 C 18.078125 2.832031 17.996094 2.796875 17.914062 2.765625 C 17.832031 2.730469 17.746094 2.695312 17.660156 2.660156 C 17.578125 2.628906 17.492188 2.601562 17.40625 2.570312 C 17.320312 2.539062 17.234375 2.503906 17.144531 2.476562 C 17.058594 2.445312 16.96875 2.417969 16.878906 2.390625 C 16.792969 2.359375 16.707031 2.332031 16.617188 2.304688 C 16.527344 2.277344 16.433594 2.253906 16.34375 2.226562 C 16.253906 2.203125 16.164062 2.175781 16.078125 2.15625 C 15.980469 2.128906 15.886719 2.109375 15.789062 2.085938 C 15.703125 2.0625 15.613281 2.042969 15.523438 2.023438 C 15.421875 2 15.320312 1.980469 15.222656 1.960938 C 15.132812 1.941406 15.046875 1.921875 14.957031 1.90625 C 14.851562 1.886719 14.746094 1.871094 14.640625 1.855469 C 14.554688 1.839844 14.46875 1.824219 14.382812 1.8125 C 14.273438 1.796875 14.160156 1.785156 14.050781 1.769531 C 13.964844 1.761719 13.878906 1.75 13.796875 1.738281 C 13.675781 1.726562 13.554688 1.714844 13.433594 1.707031 C 13.355469 1.699219 13.277344 1.691406 13.199219 1.683594 C 13.058594 1.675781 12.917969 1.667969 12.773438 1.660156 C 12.714844 1.660156 12.65625 1.65625 12.59375 1.652344 C 12.390625 1.644531 12.1875 1.640625 11.980469 1.640625 C 5.375 1.640625 0 5.46875 0 10.171875 C 0 10.507812 0.03125 12.8125 0.03125 12.8125 C 0.03125 12.828125 0.0351562 12.839844 0.0351562 12.855469 L 0.0351562 14.003906 C 0.0351562 18.6875 5.285156 22.355469 11.984375 22.355469 C 18.609375 22.355469 24 18.535156 24 13.839844 L 23.996094 11.421875 C 24 11.324219 24 11.230469 23.996094 11.140625 Z M 23.152344 10.171875 C 23.152344 10.246094 23.160156 10.359375 23.164062 10.5 C 23.171875 10.660156 23.183594 10.890625 23.1875 11.152344 L 23.1875 11.394531 C 23.179688 12.175781 23.085938 13.144531 22.675781 13.589844 C 22.535156 13.742188 22.367188 13.820312 22.152344 13.828125 C 22.105469 13.824219 22.058594 13.800781 22.03125 13.777344 C 21.988281 13.738281 21.964844 13.683594 21.964844 13.625 C 21.964844 13.398438 21.785156 13.21875 21.558594 13.21875 C 21.335938 13.21875 21.152344 13.398438 21.152344 13.625 L 21.152344 14.84375 C 21.152344 14.953125 21.058594 15.046875 20.949219 15.046875 C 20.839844 15.046875 20.746094 14.953125 20.746094 14.84375 C 20.746094 14.617188 20.566406 14.4375 20.339844 14.4375 C 20.117188 14.4375 19.933594 14.617188 19.933594 14.84375 L 19.933594 16.46875 C 19.933594 16.578125 19.839844 16.671875 19.730469 16.671875 C 19.621094 16.671875 19.527344 16.578125 19.527344 16.46875 L 19.527344 16.0625 C 19.527344 15.835938 19.347656 15.65625 19.121094 15.65625 C 18.898438 15.65625 18.714844 15.835938 18.714844 16.0625 C 18.714844 16.171875 18.625 16.265625 18.511719 16.265625 C 18.402344 16.265625 18.308594 16.171875 18.308594 16.0625 C 18.308594 15.835938 18.128906 15.65625 17.902344 15.65625 C 17.679688 15.65625 17.496094 15.835938 17.496094 16.0625 L 17.496094 18.09375 C 17.496094 18.203125 17.40625 18.296875 17.292969 18.296875 C 17.183594 18.296875 17.089844 18.203125 17.089844 18.09375 L 17.089844 16.671875 C 17.089844 16.445312 16.910156 16.265625 16.683594 16.265625 C 16.460938 16.265625 16.277344 16.445312 16.277344 16.671875 C 16.277344 16.894531 16.097656 17.078125 15.871094 17.078125 C 15.648438 17.078125 15.464844 16.894531 15.464844 16.671875 C 15.464844 16.445312 15.285156 16.265625 15.058594 16.265625 C 14.835938 16.265625 14.652344 16.445312 14.652344 16.671875 L 14.652344 18.09375 C 14.652344 18.203125 14.5625 18.296875 14.449219 18.296875 C 14.339844 18.296875 14.246094 18.203125 14.246094 18.09375 L 14.246094 17.484375 C 14.246094 17.257812 14.066406 17.078125 13.839844 17.078125 C 13.617188 17.078125 13.433594 17.257812 13.433594 17.484375 C 13.433594 17.707031 13.253906 17.890625 13.03125 17.890625 C 12.804688 17.890625 12.625 17.707031 12.625 17.484375 C 12.625 17.257812 12.441406 17.078125 12.21875 17.078125 C 11.992188 17.078125 11.8125 17.257812 11.8125 17.484375 L 11.8125 19.109375 C 11.8125 19.332031 11.628906 19.515625 11.40625 19.515625 C 11.179688 19.515625 11 19.332031 11 19.109375 L 11 17.6875 C 11 17.460938 10.816406 17.28125 10.59375 17.28125 C 10.367188 17.28125 10.1875 17.460938 10.1875 17.6875 C 10.1875 17.796875 10.09375 17.890625 9.984375 17.890625 C 9.871094 17.890625 9.78125 17.796875 9.78125 17.6875 C 9.78125 17.460938 9.597656 17.28125 9.375 17.28125 C 9.148438 17.28125 8.96875 17.460938 8.96875 17.6875 L 8.96875 18.296875 C 8.96875 18.519531 8.785156 18.703125 8.5625 18.703125 C 8.335938 18.703125 8.15625 18.519531 8.15625 18.296875 L 8.15625 16.875 C 8.15625 16.648438 7.972656 16.46875 7.75 16.46875 C 7.523438 16.46875 7.34375 16.648438 7.34375 16.875 C 7.34375 16.984375 7.25 17.078125 7.140625 17.078125 C 7.03125 17.078125 6.9375 16.984375 6.9375 16.875 C 6.9375 16.648438 6.753906 16.46875 6.53125 16.46875 C 6.304688 16.46875 6.125 16.648438 6.125 16.875 L 6.125 17.6875 C 6.125 17.796875 6.03125 17.890625 5.921875 17.890625 C 5.8125 17.890625 5.71875 17.796875 5.71875 17.6875 L 5.71875 15.65625 C 5.71875 15.429688 5.535156 15.25 5.3125 15.25 C 5.085938 15.25 4.90625 15.429688 4.90625 15.65625 C 4.90625 15.765625 4.8125 15.859375 4.703125 15.859375 C 4.59375 15.859375 4.5 15.765625 4.5 15.65625 C 4.5 15.429688 4.316406 15.25 4.09375 15.25 C 3.867188 15.25 3.6875 15.429688 3.6875 15.65625 L 3.6875 16.46875 C 3.6875 16.578125 3.59375 16.671875 3.484375 16.671875 C 3.375 16.671875 3.28125 16.578125 3.28125 16.46875 L 3.28125 14.84375 C 3.28125 14.617188 3.097656 14.4375 2.875 14.4375 C 2.648438 14.4375 2.46875 14.617188 2.46875 14.84375 C 2.46875 14.953125 2.375 15.046875 2.265625 15.046875 C 2.15625 15.046875 2.0625 14.953125 2.0625 14.84375 L 2.0625 12.886719 C 2.0625 12.785156 2.015625 12.679688 1.949219 12.605469 C 1.839844 12.488281 1.675781 12.441406 1.523438 12.492188 C 1.371094 12.542969 1.261719 12.675781 1.246094 12.835938 C 1.234375 12.9375 1.148438 13.015625 1.046875 13.015625 C 0.945312 13.015625 0.859375 12.933594 0.847656 12.828125 C 0.847656 11.703125 0.84375 10.171875 0.84375 10.171875 C 0.84375 5.917969 5.839844 2.453125 11.984375 2.453125 C 18.140625 2.453125 23.152344 5.917969 23.152344 10.171875 Z M 11.984375 21.546875 C 5.738281 21.546875 0.851562 18.234375 0.851562 14.003906 C 0.851562 14.003906 0.851562 13.929688 0.847656 13.808594 C 0.914062 13.820312 0.980469 13.828125 1.046875 13.828125 C 1.117188 13.828125 1.183594 13.820312 1.25 13.808594 L 1.25 14.84375 C 1.25 15.402344 1.707031 15.859375 2.265625 15.859375 C 2.335938 15.859375 2.402344 15.851562 2.46875 15.839844 L 2.46875 16.46875 C 2.46875 17.027344 2.925781 17.484375 3.484375 17.484375 C 3.980469 17.484375 4.398438 17.121094 4.484375 16.648438 C 4.621094 16.675781 4.769531 16.675781 4.90625 16.652344 L 4.90625 17.6875 C 4.90625 18.246094 5.359375 18.703125 5.921875 18.703125 C 6.417969 18.703125 6.835938 18.339844 6.921875 17.867188 C 7.054688 17.894531 7.207031 17.894531 7.34375 17.871094 L 7.34375 18.296875 C 7.34375 18.96875 7.890625 19.515625 8.5625 19.515625 C 9.101562 19.515625 9.5625 19.160156 9.722656 18.667969 C 9.867188 18.707031 10.035156 18.710938 10.1875 18.679688 L 10.1875 19.109375 C 10.1875 19.78125 10.734375 20.328125 11.40625 20.328125 C 12.078125 20.328125 12.625 19.78125 12.625 19.109375 L 12.625 18.632812 C 12.921875 18.738281 13.28125 18.714844 13.558594 18.578125 C 13.734375 18.894531 14.066406 19.109375 14.449219 19.109375 C 15.011719 19.109375 15.464844 18.652344 15.464844 18.09375 L 15.464844 17.820312 C 15.722656 17.910156 16.023438 17.910156 16.277344 17.820312 L 16.277344 18.09375 C 16.277344 18.652344 16.734375 19.109375 17.292969 19.109375 C 17.855469 19.109375 18.308594 18.652344 18.308594 18.09375 L 18.308594 17.058594 C 18.496094 17.09375 18.699219 17.078125 18.875 17.011719 C 19.054688 17.292969 19.371094 17.484375 19.730469 17.484375 C 20.292969 17.484375 20.746094 17.027344 20.746094 16.46875 L 20.746094 15.839844 C 20.8125 15.851562 20.878906 15.859375 20.949219 15.859375 C 21.511719 15.859375 21.964844 15.402344 21.964844 14.84375 L 21.964844 14.625 C 22.035156 14.636719 22.109375 14.640625 22.183594 14.640625 C 22.570312 14.625 22.902344 14.480469 23.171875 14.230469 C 22.875 18.300781 17.972656 21.546875 11.984375 21.546875 Z M 11.984375 21.546875"/>
    <path d="M 7.75 9.765625 C 7.75 10.046875 7.820312 10.332031 7.953125 10.613281 C 7.960938 10.625 7.957031 10.636719 7.964844 10.648438 C 8.550781 11.820312 10.257812 12.609375 12.21875 12.609375 C 14.175781 12.609375 15.886719 11.820312 16.472656 10.648438 C 16.476562 10.636719 16.476562 10.625 16.480469 10.613281 C 16.617188 10.332031 16.6875 10.046875 16.6875 9.765625 C 16.6875 8.171875 14.722656 6.921875 12.21875 6.921875 C 9.710938 6.921875 7.75 8.171875 7.75 9.765625 Z M 8.945312 10.652344 C 8.953125 10.648438 8.964844 10.644531 8.972656 10.640625 C 9.191406 10.5625 9.414062 10.492188 9.640625 10.429688 C 9.671875 10.421875 9.707031 10.410156 9.738281 10.402344 C 9.964844 10.339844 10.199219 10.292969 10.4375 10.25 C 10.484375 10.242188 10.53125 10.230469 10.578125 10.222656 C 10.816406 10.183594 11.058594 10.152344 11.308594 10.132812 C 11.347656 10.128906 11.386719 10.125 11.429688 10.125 C 11.6875 10.101562 11.953125 10.089844 12.21875 10.089844 C 12.484375 10.089844 12.746094 10.105469 13.007812 10.125 C 13.046875 10.125 13.089844 10.128906 13.128906 10.132812 C 13.375 10.152344 13.617188 10.183594 13.855469 10.222656 C 13.902344 10.230469 13.949219 10.242188 13.996094 10.25 C 14.234375 10.292969 14.46875 10.34375 14.695312 10.402344 C 14.730469 10.410156 14.761719 10.421875 14.792969 10.429688 C 15.023438 10.492188 15.246094 10.5625 15.460938 10.640625 C 15.472656 10.644531 15.480469 10.648438 15.492188 10.652344 C 14.878906 11.339844 13.613281 11.796875 12.21875 11.796875 C 10.820312 11.796875 9.558594 11.339844 8.945312 10.652344 Z M 12.21875 7.734375 C 14.199219 7.734375 15.875 8.664062 15.875 9.765625 C 15.875 9.816406 15.867188 9.871094 15.859375 9.921875 C 15.855469 9.921875 15.855469 9.921875 15.851562 9.917969 C 15.601562 9.824219 15.34375 9.742188 15.082031 9.667969 C 15.042969 9.65625 15.003906 9.644531 14.964844 9.632812 C 14.707031 9.5625 14.449219 9.507812 14.183594 9.457031 C 14.132812 9.449219 14.085938 9.441406 14.039062 9.433594 C 13.769531 9.386719 13.5 9.351562 13.222656 9.324219 C 13.183594 9.320312 13.144531 9.320312 13.105469 9.316406 C 12.8125 9.292969 12.515625 9.277344 12.21875 9.277344 C 11.917969 9.277344 11.625 9.292969 11.332031 9.316406 C 11.292969 9.320312 11.253906 9.320312 11.214844 9.324219 C 10.9375 9.351562 10.664062 9.386719 10.398438 9.433594 C 10.347656 9.441406 10.300781 9.449219 10.253906 9.457031 C 9.988281 9.507812 9.726562 9.566406 9.472656 9.632812 C 9.433594 9.644531 9.394531 9.65625 9.355469 9.667969 C 9.089844 9.742188 8.835938 9.824219 8.585938 9.917969 C 8.582031 9.921875 8.578125 9.921875 8.574219 9.921875 C 8.566406 9.871094 8.5625 9.820312 8.5625 9.765625 C 8.5625 8.664062 10.234375 7.734375 12.21875 7.734375 Z M 12.21875 7.734375"/>
</svg>

<svg xmlns="http://www.w3.org/2000/svg" width="32" height="32" viewBox="0 0 24 24">
    <path d="M6.895 10.762l-1.754.472a.408.408 0 0 0 .214.786l1.75-.473a.407.407 0 1 0-.21-.785zm0 0M11.805 14.285l-1.22-.406a.406.406 0 1 0-.257.77l1.219.406a.41.41 0 0 0 .516-.258.407.407 0 0 0-.258-.512zm0 0M19.527 9.727a.406.406 0 0 0-.406.406v1.625a.406.406 0 1 0 .813 0v-1.625a.403.403 0 0 0-.407-.406zm0 0M9.645 5.371a.406.406 0 0 0 .57.031.404.404 0 0 0 .031-.574l-.86-.957a.403.403 0 0 0-.57-.031.404.404 0 0 0-.03.574zm0 0M19.09 7.512l1.219.406a.4.4 0 0 0 .512-.258.41.41 0 0 0-.255-.515l-1.218-.407a.41.41 0 0 0-.516.258.406.406 0 0 0 .258.516zm0 0M14.832 12.547a.402.402 0 0 0-.43.383l-.035.574a.409.409 0 0 0 .383.43h.023a.41.41 0 0 0 .407-.383l.03-.574a.406.406 0 0 0-.378-.43zm0 0M17.684 14.754a.414.414 0 0 0 .289.117.405.405 0 0 0 .285-.691l-.406-.407a.403.403 0 0 0-.575 0 .41.41 0 0 0 0 .575zm0 0M6.41 13.977a.403.403 0 0 0-.574 0 .41.41 0 0 0 0 .574l.406.406a.414.414 0 0 0 .29.117.405.405 0 0 0 .284-.691zm0 0M17.984 5.922h.02a.406.406 0 0 0 .387-.422l-.028-.574a.403.403 0 0 0-.422-.387.403.403 0 0 0-.386.422l.023.574a.407.407 0 0 0 .406.387zm0 0M5.438 8.043a.407.407 0 0 0 .395-.508l-.407-1.62a.403.403 0 0 0-.492-.298.406.406 0 0 0-.293.492l.406 1.625c.043.184.21.309.39.309zm0 0M3.363 9.195a.403.403 0 0 0-.574 0 .41.41 0 0 0 0 .575l.406.406a.414.414 0 0 0 .29.117.403.403 0 0 0 .285-.691zm0 0M14.91 5.719a.402.402 0 0 0 .574 0 .41.41 0 0 0 0-.574l-.406-.407a.41.41 0 0 0-.574 0 .403.403 0 0 0 0 .574zm0 0"/>
    <path d="M23.996 11.14v-.968a.374.374 0 0 0-.031-.149c0-.05-.008-.097-.008-.148-.004-.07-.008-.14-.016-.21a1.973 1.973 0 0 0-.023-.22c-.008-.07-.016-.144-.027-.21a3.5 3.5 0 0 0-.04-.215 3.994 3.994 0 0 0-.038-.211c-.02-.07-.036-.137-.055-.207-.016-.07-.035-.141-.055-.211l-.066-.2c-.024-.07-.047-.14-.075-.21a6.777 6.777 0 0 0-.078-.196c-.027-.066-.054-.137-.086-.203-.027-.066-.058-.129-.09-.191-.035-.07-.066-.137-.101-.204a2.765 2.765 0 0 0-.102-.183c-.039-.066-.074-.133-.117-.2-.035-.062-.074-.12-.113-.179-.043-.066-.082-.133-.129-.195-.039-.059-.082-.117-.125-.176-.047-.063-.09-.125-.14-.191l-.137-.168a7.602 7.602 0 0 0-.153-.184c-.046-.055-.097-.11-.144-.16-.059-.063-.113-.125-.172-.184-.047-.054-.102-.105-.152-.156-.059-.059-.118-.117-.18-.176-.055-.05-.11-.098-.168-.148-.063-.059-.125-.114-.188-.168-.058-.051-.117-.098-.175-.145a9.262 9.262 0 0 0-.203-.164 3.196 3.196 0 0 0-.184-.137c-.07-.054-.14-.105-.21-.156a5.756 5.756 0 0 0-.196-.133c-.074-.05-.149-.097-.223-.148-.066-.043-.133-.082-.203-.125-.074-.047-.152-.094-.23-.14l-.211-.118-.239-.133c-.074-.039-.148-.074-.226-.113-.078-.039-.16-.082-.242-.121-.079-.04-.157-.07-.235-.106a6.542 6.542 0 0 0-.496-.215 16.81 16.81 0 0 0-.254-.105c-.082-.031-.168-.058-.254-.09-.086-.03-.172-.066-.261-.093-.086-.032-.176-.059-.266-.086a5.13 5.13 0 0 0-.262-.086c-.09-.028-.183-.051-.273-.078-.09-.024-.18-.051-.266-.07-.098-.028-.191-.048-.289-.071-.086-.023-.176-.043-.266-.063-.101-.023-.203-.043-.3-.062-.09-.02-.176-.04-.266-.055a8.876 8.876 0 0 0-.316-.05 5.91 5.91 0 0 0-.258-.044c-.11-.015-.223-.027-.332-.042a5.01 5.01 0 0 1-.254-.032 11.388 11.388 0 0 0-.363-.031l-.235-.023-.426-.024c-.058 0-.117-.004-.18-.008a15.904 15.904 0 0 0-.613-.011C5.375 1.64 0 5.469 0 10.17c0 .337.031 2.642.031 2.642 0 .015.004.027.004.042v1.149c0 4.684 5.25 8.351 11.95 8.351 6.624 0 12.015-3.82 12.015-8.515l-.004-2.418a3.375 3.375 0 0 0 0-.281zm-.844-.968c0 .074.008.187.012.328.008.16.02.39.023.652v.243c-.007.78-.101 1.75-.511 2.195a.71.71 0 0 1-.524.238.229.229 0 0 1-.12-.05.204.204 0 0 1-.067-.153.406.406 0 1 0-.813 0v1.219c0 .11-.093.203-.203.203a.207.207 0 0 1-.203-.203.406.406 0 1 0-.813 0v1.625c0 .11-.093.203-.203.203a.207.207 0 0 1-.203-.203v-.407a.406.406 0 1 0-.813 0c0 .11-.089.204-.202.204a.207.207 0 0 1-.203-.203.406.406 0 1 0-.813 0v2.03c0 .11-.09.204-.203.204a.207.207 0 0 1-.203-.203v-1.422a.406.406 0 1 0-.813 0 .406.406 0 1 1-.812 0 .406.406 0 1 0-.813 0v1.422c0 .11-.09.203-.203.203a.207.207 0 0 1-.203-.203v-.61a.406.406 0 1 0-.813 0 .405.405 0 1 1-.808 0 .406.406 0 1 0-.813 0v1.625a.406.406 0 1 1-.813 0l.001-1.421a.406.406 0 1 0-.813 0c0 .109-.093.203-.203.203a.204.204 0 0 1-.203-.203.406.406 0 1 0-.812 0v.609a.406.406 0 1 1-.813 0v-1.422a.406.406 0 1 0-.812 0c0 .11-.094.203-.203.203a.207.207 0 0 1-.204-.203.406.406 0 1 0-.812 0v.813c0 .109-.094.203-.203.203a.207.207 0 0 1-.203-.203v-2.032a.406.406 0 1 0-.813 0c0 .11-.093.203-.203.203a.207.207 0 0 1-.203-.203.406.406 0 1 0-.813 0v.813c0 .11-.093.203-.203.203a.207.207 0 0 1-.203-.203v-1.625a.406.406 0 1 0-.812 0c0 .11-.094.203-.203.203a.207.207 0 0 1-.204-.203v-1.957a.44.44 0 0 0-.113-.282.406.406 0 0 0-.703.23.202.202 0 0 1-.2.18.206.206 0 0 1-.198-.187c0-1.125-.004-2.656-.004-2.656 0-4.254 4.996-7.719 11.14-7.719 6.157 0 11.168 3.465 11.168 7.719zM11.984 21.547c-6.246 0-11.132-3.313-11.132-7.543 0 0 0-.074-.004-.195.066.011.132.02.199.02.07 0 .137-.009.203-.02v1.035a1.019 1.019 0 0 0 1.219.996v.629c0 .558.457 1.015 1.015 1.015.496 0 .914-.363 1-.836.137.028.286.028.422.004v1.035a1.016 1.016 0 0 0 2.016.18c.133.028.285.028.422.004v.426a1.22 1.22 0 0 0 1.218 1.219c.54 0 1-.356 1.16-.848.145.039.313.043.466.012v.43a1.22 1.22 0 0 0 1.218 1.218 1.22 1.22 0 0 0 1.219-1.219v-.476c.297.105.656.082.934-.055.175.317.507.531.89.531.563 0 1.016-.457 1.016-1.015v-.274c.258.09.558.09.812 0v.274a1.016 1.016 0 0 0 2.031 0v-1.035c.188.035.391.02.567-.047.18.281.496.472.855.472.563 0 1.016-.457 1.016-1.015v-.63a1.016 1.016 0 0 0 1.219-.996v-.218c.07.012.144.016.219.016.386-.016.718-.16.988-.41-.297 4.07-5.2 7.316-11.188 7.316zm0 0"/>
    <path d="M7.75 9.766c0 .28.07.566.203.847.008.012.004.024.012.035.586 1.172 2.293 1.961 4.254 1.961 1.957 0 3.668-.789 4.254-1.96.004-.012.004-.024.007-.036.137-.281.207-.566.207-.847 0-1.594-1.964-2.844-4.468-2.844-2.508 0-4.469 1.25-4.469 2.844zm1.195.886l.028-.011c.218-.079.441-.149.668-.211l.097-.028c.227-.062.461-.109.7-.152.046-.008.093-.02.14-.027a8.677 8.677 0 0 1 .852-.098 8.755 8.755 0 0 1 1.578 0 8.786 8.786 0 0 1 .848.098c.046.007.093.02.14.027.238.043.473.094.7.152.034.008.066.02.097.028.23.062.453.133.668.21l.031.012c-.613.688-1.879 1.145-3.273 1.145-1.399 0-2.66-.457-3.274-1.145zm3.274-2.918c1.98 0 3.656.93 3.656 2.032 0 .05-.008.105-.016.156-.004 0-.004 0-.007-.004a9.836 9.836 0 0 0-.77-.25l-.117-.035c-.258-.07-.516-.125-.781-.176l-.145-.023c-.27-.047-.539-.082-.816-.11-.04-.004-.078-.004-.118-.008-.293-.023-.59-.039-.886-.039-.301 0-.594.016-.887.04-.039.003-.078.003-.117.007-.277.028-.55.063-.817.11l-.144.023a12 12 0 0 0-.781.176l-.118.035c-.265.074-.52.156-.77.25-.003.004-.007.004-.01.004a1.014 1.014 0 0 1-.012-.156c0-1.102 1.671-2.032 3.656-2.032zm0 0"/>
</svg>
